public/avatar/item1/10.svg

<svg xmlns:xlink="http://www.w3.org/1999/xlink" height="65.4" width="80.15" xmlns="http://www.w3.org/2000/svg"><g transform="translate(31.6 13.8)"><use height="6.45" transform="translate(-13.7 14.5)" width="13.4" xlink:href="#a"/><use height="6.45" transform="matrix(-1 0 0 1 13.05 14.45)" width="13.4" xlink:href="#a"/></g><defs><path d="M13.4 1.25v3.3q-1.35-.8-2.1-.65-1.1.25-2.6 1L5.85 6.15l-2.65.3-1.45-.5-.95-.9L.3 4Q0 3.35 0 2.65l.1-1Q.3.9.9.5 1.5 0 2.2 0l.95.3q.5.35.6.9Q3.35.6 2.5.85q-.35.05-.55.25-.75.6-.8 1.55-.05.95.8 1.55.8.55 1.7.45l1.55-.2 1.2-.55 1.5-1.1q.85-.7 2-1.1l2.05-.6h1.45v.15" fill-rule="evenodd" id="b"/><use height="6.45" width="13.4" xlink:href="#b" id="a"/></defs></svg>

<?xml version="1.0" encoding="UTF-8" standalone="no"?>
<svg xmlns:xlink="http://www.w3.org/1999/xlink" height="65.4px" width="80.15px" xmlns="http://www.w3.org/2000/svg">
  <g transform="matrix(1.0, 0.0, 0.0, 1.0, 31.6, 13.8)">
    <use height="6.45" transform="matrix(1.0, 0.0, 0.0, 1.0, -13.7, 14.5)" width="13.4" xlink:href="#sprite0"/>
    <use height="6.45" transform="matrix(-1.0, 0.0, 0.0, 1.0, 13.05, 14.45)" width="13.4" xlink:href="#sprite0"/>
  </g>
  <defs>
    <g id="sprite0" transform="matrix(1.0, 0.0, 0.0, 1.0, 0.0, 0.0)">
      <use height="6.45" transform="matrix(1.0, 0.0, 0.0, 1.0, 0.0, 0.0)" width="13.4" xlink:href="#shape0"/>
    </g>
    <g id="shape0" transform="matrix(1.0, 0.0, 0.0, 1.0, 0.0, 0.0)">
      <path d="M13.4 1.25 L13.4 1.5 13.4 4.55 Q12.05 3.75 11.3 3.9 10.2 4.15 8.7 4.9 L5.85 6.15 3.2 6.45 1.75 5.95 0.8 5.05 0.3 4.0 Q0.0 3.35 0.0 2.65 L0.1 1.65 Q0.3 0.9 0.9 0.5 1.5 0.0 2.2 0.0 L3.15 0.3 Q3.65 0.65 3.75 1.2 3.35 0.6 2.5 0.85 2.15 0.9 1.95 1.1 1.2 1.7 1.15 2.65 1.1 3.6 1.95 4.2 2.75 4.75 3.65 4.65 L5.2 4.45 6.4 3.9 7.9 2.8 Q8.75 2.1 9.9 1.7 L11.95 1.1 13.4 1.1 13.4 1.25" fill="#000000" fill-rule="evenodd" stroke="none"/>
    </g>
  </defs>
</svg>
